assets/chess-sprites/cburnett/bn.svg

<svg xmlns="http://www.w3.org/2000/svg" width="45" height="45"><path d="M22 10c10.5 1 16.5 8 16 29H15c0-9 10-6.5 8-21" fill-rule="evenodd" stroke="#000" stroke-linecap="round"/><path d="M24 18c.384 2.911-5.553 7.369-8 9-3 2-2.819 4.343-5 4-1.042-.944 1.413-3.038 0-3-1 0 .187 1.232-1 2-1 0-4.003 1-4-4 0-2 6-12 6-12s1.886-1.902 2-3.5c-.726-.994-.5-2-.5-3 1-1 3 2.5 3 2.5h2s.782-1.992 2.5-3c1 0 1 3 1 3" fill-rule="evenodd" stroke="#000" stroke-linecap="round" stroke-linejoin="round"/><path d="M9.5 25.5a.5.5 0 1 1-1 0 .5.5 0 1 1 1 0z" stroke="#fff" stroke-linecap="round" stroke-linejoin="round"/><path d="M14.933 15.75a.5 1.5 30 1 1-.866-.5.5 1.5 30 1 1 .866.5z" stroke="#fff" stroke-linecap="round" stroke-linejoin="round" stroke-width=".99998"/><path d="M24.55 10.4l-.3 1.1.55.1c3.101.477 6.324 2.234 8.575 6.494C35.626 22.353 36.297 29.057 35.8 39l-.05.5h1.75V39c.503-10.057-.876-16.853-3.25-21.344-2.374-4.49-5.789-6.633-9.187-7.156l-.513-.1z" fill="#fff" fill-rule="evenodd"/></svg>

<?xml version="1.0" encoding="UTF-8" standalone="no"?>
<!DOCTYPE svg PUBLIC "-//W3C//DTD SVG 1.1//EN" "http://www.w3.org/Graphics/SVG/1.1/DTD/svg11.dtd">
<svg
   xmlns:svg="http://www.w3.org/2000/svg"
   xmlns="http://www.w3.org/2000/svg"
   version="1.1"
   width="45"
   height="45"
   id="svg3128">
  <defs
     id="defs3130" />
  <g
     id="layer1">
    <path
       d="M 22,10 C 32.5,11 38.5,18 38,39 L 15,39 C 15,30 25,32.5 23,18"
       style="fill:#000000;fill-opacity:1;fill-rule:evenodd;stroke:#000000;stroke-width:1px;stroke-linecap:round;stroke-linejoin:miter;stroke-opacity:1"
       id="path3491" />
    <path
       d="M 24,18 C 24.384,20.911 18.447,25.369 16,27 C 13,29 13.181,31.343 11,31 C 9.9583,30.056 12.413,27.962 11,28 C 10,28 11.187,29.232 10,30 C 9,30 5.9968,31 6,26 C 6,24 12,14 12,14 C 12,14 13.886,12.098 14,10.5 C 13.274,9.5056 13.5,8.5 13.5,7.5 C 14.5,6.5 16.5,10 16.5,10 L 18.5,10 C 18.5,10 19.282,8.0081 21,7 C 22,7 22,10 22,10"
       style="fill:#000000;fill-opacity:1;fill-rule:evenodd;stroke:#000000;stroke-width:1px;stroke-linecap:round;stroke-linejoin:round;stroke-opacity:1"
       id="path3495" />
    <path
       d="M 9 23.5 A 0.5 0.5 0 1 1  8,23.5 A 0.5 0.5 0 1 1  9 23.5 z"
       transform="translate(0.5,2)"
       style="opacity:1;fill:#000000;fill-opacity:1;stroke:#ffffff;stroke-width:1;stroke-linecap:round;stroke-linejoin:round;stroke-miterlimit:4;stroke-dasharray:none;stroke-opacity:1"
       id="path3499" />
    <path
       d="M 15 15.5 A 0.5 1.5 0 1 1  14,15.5 A 0.5 1.5 0 1 1  15 15.5 z"
       transform="matrix(0.866,0.5,-0.5,0.866,9.6926,-5.1734)"
       style="opacity:1;fill:#000000;fill-opacity:1;stroke:#ffffff;stroke-width:1;stroke-linecap:round;stroke-linejoin:round;stroke-miterlimit:4;stroke-dasharray:none;stroke-opacity:1"
       id="path3501" />
    <path
       d="M 24.55,10.4 L 24.25,11.5 L 24.8,11.6 C 27.901,12.077 31.124,13.834 33.375,18.094 C 35.626,22.353 36.297,29.057 35.8,39 L 35.75,39.5 L 37.5,39.5 L 37.5,39 C 38.003,28.943 36.624,22.147 34.25,17.656 C 31.876,13.166 28.461,11.023 25.063,10.5 L 24.55,10.4 z "
       style="fill:#ffffff;fill-opacity:1;fill-rule:evenodd;stroke:none;stroke-width:1;stroke-linecap:square;stroke-linejoin:miter;stroke-miterlimit:4;stroke-dasharray:none;stroke-opacity:1"
       id="path8049" />
  </g>
</svg>
